icons/hand-fist.svg

<svg width="24" height="24" viewBox="0 0 24 24" fill="none" xmlns="http://www.w3.org/2000/svg">
<path d="M15.75 12.3908H14.25C13.9521 12.3896 13.6575 12.328 13.384 12.2098C13.1106 12.0915 12.8639 11.9191 12.659 11.7028C12.234 11.2549 11.9979 10.6603 12 10.0428V8.47782C11.9995 8.27206 12.0783 8.074 12.22 7.92482C12.2882 7.85263 12.3703 7.79502 12.4614 7.75548C12.5525 7.71595 12.6507 7.69531 12.75 7.69482H18.75C19.347 7.69482 19.919 7.94282 20.341 8.38282C20.766 8.83077 21.0021 9.42532 21 10.0428V11.6088C21 14.0988 20.052 16.4878 18.364 18.2488C16.676 20.0098 14.387 20.9998 12 20.9998C9.613 20.9998 7.324 20.0108 5.636 18.2498C3.948 16.4878 3 14.0998 3 11.6098V9.25982" stroke="white" stroke-width="2" stroke-linecap="round" stroke-linejoin="round"/>
<path d="M3.00002 9.26014V7.69514C2.99795 7.07764 3.23397 6.48309 3.65902 6.03514C4.08102 5.59514 4.65302 5.34814 5.25002 5.34814C5.84702 5.34814 6.41902 5.59514 6.84102 6.03514C7.26606 6.48309 7.50209 7.07764 7.50002 7.69514V9.26114C7.50209 9.87865 7.26606 10.4732 6.84102 10.9211C6.41902 11.3611 5.84702 11.6091 5.25002 11.6091C4.95208 11.608 4.65747 11.5465 4.38401 11.4282C4.11054 11.3099 3.86391 11.1374 3.65902 10.9211C3.23374 10.4729 2.99769 9.878 3.00002 9.26014Z" stroke="white" stroke-width="2" stroke-linecap="round" stroke-linejoin="round"/>
<path d="M12 5.348C11.9979 4.73049 12.234 4.13595 12.659 3.688C13.081 3.248 13.653 3 14.25 3C14.847 3 15.419 3.247 15.841 3.688C16.266 4.13595 16.5021 4.73049 16.5 5.348V7.696" stroke="white" stroke-width="2" stroke-linecap="round" stroke-linejoin="round"/>
<path d="M12 9.26C12.0023 9.87785 11.7663 10.4728 11.341 10.921C10.919 11.361 10.347 11.609 9.75 11.609C9.45207 11.6078 9.15748 11.5462 8.88402 11.428C8.61057 11.3097 8.36392 11.1373 8.159 10.921C7.73396 10.4731 7.49793 9.87851 7.5 9.261V5.348C7.49793 4.73049 7.73396 4.13595 8.159 3.688C8.581 3.248 9.153 3 9.75 3C10.347 3 10.919 3.247 11.341 3.688C11.766 4.13595 12.0021 4.73049 12 5.348V9.26Z" stroke="white" stroke-width="2" stroke-linecap="round" stroke-linejoin="round"/>
<path d="M12 16.3041C12 15.2661 12.395 14.2711 13.098 13.5371C13.4396 13.1767 13.8508 12.8894 14.3066 12.6924C14.7624 12.4955 15.2534 12.3929 15.75 12.3911" stroke="white" stroke-width="2" stroke-linecap="round" stroke-linejoin="round"/>
</svg>

<svg
  width="24"
  height="24"
  viewBox="0 0 24 24"
  xmlns="http://www.w3.org/2000/svg"
  fill="none"
  stroke="currentColor"
  stroke-width="2"
  stroke-linecap="round"
  stroke-linejoin="round"
>
  <path d="M15.75 12.39h-1.5a2.205 2.205 0 0 1-1.591-.687 2.4 2.4 0 0 1-.659-1.66V8.478a.8.8 0 0 1 .22-.553.734.734 0 0 1 .53-.23h6c.597 0 1.169.248 1.591.688a2.4 2.4 0 0 1 .659 1.66v1.566c0 2.49-.948 4.879-2.636 6.64-1.688 1.76-3.977 2.75-6.364 2.75s-4.676-.988-6.364-2.75C3.948 16.489 3 14.1 3 11.61V9.26" />
  <path d="M3 9.26V7.695a2.4 2.4 0 0 1 .659-1.66c.422-.44.994-.687 1.591-.687s1.169.247 1.591.687a2.4 2.4 0 0 1 .659 1.66v1.566a2.4 2.4 0 0 1-.659 1.66c-.422.44-.994.688-1.591.688a2.202 2.202 0 0 1-1.591-.688A2.4 2.4 0 0 1 3 9.261z" />
  <path d="M12 5.348a2.4 2.4 0 0 1 .659-1.66c.422-.44.994-.688 1.591-.688a2.2 2.2 0 0 1 1.591.688 2.4 2.4 0 0 1 .659 1.66v2.348" />
  <path d="M12 9.26a2.4 2.4 0 0 1-.659 1.661c-.422.44-.994.688-1.591.688a2.205 2.205 0 0 1-1.591-.688 2.4 2.4 0 0 1-.659-1.66V5.348a2.4 2.4 0 0 1 .659-1.66C8.581 3.248 9.153 3 9.75 3a2.2 2.2 0 0 1 1.591.688A2.4 2.4 0 0 1 12 5.348V9.26z" />
  <path d="M12 16.304c0-1.038.395-2.033 1.098-2.767a3.673 3.673 0 0 1 2.652-1.146" />
</svg>
